packages/core/src/svgs/tokens/branded/D2T.svg

<svg width="24" height="24" viewBox="0 0 24 24" fill="none" xmlns="http://www.w3.org/2000/svg">
<path d="M11.9999 21.9999C17.5228 21.9999 22 17.5229 22 12C22 6.47715 17.5228 2 11.9999 2C6.47714 2 2 6.47715 2 12C2 17.5229 6.47714 21.9999 11.9999 21.9999Z" fill="url(#paint0_linear_364_2071)"/>
<path d="M4.06251 18.0812C2.72223 16.3375 1.99701 14.1991 2.00001 12C2.00001 9.74993 2.74376 7.67495 4.00001 5.99995H6.7125C7.36251 6.0437 8.8625 6.19995 9.66254 6.52495C9.69375 6.21245 9.9125 5.51245 10.5499 5.26246C11.35 4.94996 11.625 4.94995 13.1625 4.94995C14.0062 4.94995 14.7 4.9937 15.3249 5.0312C15.8437 5.06245 16.3249 5.0937 16.8 5.0937C17.6437 5.0937 18.3625 4.81245 18.6125 4.6687C18.4344 5.06836 18.1573 5.41592 17.8073 5.67842C17.4573 5.94093 17.0461 6.10969 16.6125 6.1687C16.3 6.2187 15.9563 6.25619 15.6125 6.2937C14.3438 6.43745 13.075 6.57496 12.9438 7.1937C12.8125 7.81869 13.2063 8.6312 13.425 8.96869C13.675 9.4062 14.1374 10.4562 14.0187 11.1937C13.9438 11.6563 13.8937 11.875 13.8563 12.0063C13.8246 12.1006 13.814 12.2009 13.825 12.3C13.8437 12.4875 14.3562 14.2124 14.6125 15.0499C14.7375 15.1937 15.0187 15.5375 15.1499 15.7749C15.3187 16.0687 15.475 16.5562 15.0438 17.5249C14.6063 18.4999 13.5749 19.2625 12.6499 19.2625C12.0812 19.2625 11.8 18.9125 11.5625 18.6062C11.4125 18.4187 11.275 18.25 11.0937 18.1874C10.9937 18.1499 10.8124 18.1187 10.5687 18.075C9.63746 17.9 7.86875 17.5749 6.9625 16.4811C6.34376 16.7312 4.975 17.3875 4.06251 18.0812Z" fill="#37C0D2"/>
<defs>
<linearGradient id="paint0_linear_364_2071" x1="11.9999" y1="2" x2="11.9999" y2="21.9999" gradientUnits="userSpaceOnUse">
<stop stop-color="#0B2E30"/>
<stop offset="1"/>
</linearGradient>
</defs>
</svg>

<svg xmlns="http://www.w3.org/2000/svg" width="24" height="24" fill="none" viewBox="0 0 24 24">
    <path fill="url(#D2T__a)" d="M12 22c5.523 0 10-4.477 10-10S17.523 2 12 2 2 6.477 2 12s4.477 10 10 10"/>
    <path fill="#37C0D2" d="M4.063 18.081A9.96 9.96 0 0 1 2 12c0-2.25.744-4.325 2-6h2.713c.65.044 2.15.2 2.95.525.03-.313.25-1.013.887-1.263.8-.312 1.075-.312 2.612-.312.844 0 1.538.044 2.163.081.519.031 1 .063 1.475.063.844 0 1.563-.282 1.813-.425a2.57 2.57 0 0 1-2 1.5c-.313.05-.657.087-1 .125-1.27.143-2.538.281-2.67.9-.13.625.263 1.437.482 1.775.25.437.712 1.487.594 2.225a7 7 0 0 1-.163.812.7.7 0 0 0-.031.294c.019.188.531 1.912.788 2.75.125.144.406.487.537.725.169.294.325.781-.106 1.75-.438.975-1.47 1.738-2.394 1.738-.569 0-.85-.35-1.088-.657-.15-.187-.287-.356-.468-.419-.1-.037-.282-.068-.525-.112-.932-.175-2.7-.5-3.607-1.594-.618.25-1.987.906-2.9 1.6"/>
    <defs>
        <linearGradient id="D2T__a" x1="12" x2="12" y1="2" y2="22" gradientUnits="userSpaceOnUse">
            <stop stop-color="#0B2E30"/>
            <stop offset="1"/>
        </linearGradient>
    </defs>
</svg>
